proprietary/assets/icons/computer-en-internet/applicatie.svg

<svg enable-background="new 0 0 64 64" viewBox="0 0 64 64" xmlns="http://www.w3.org/2000/svg"><path d="m0 0h64v64h-64z" fill="none"/><path d="m55 8h-46c-1.1 0-2 .9-2 2v35c0 1.1.9 2 2 2h16.5s-.5 1.9-1.5 5c-.6 1.8-2.4 2-2.9 2h-2.1c-.6 0-1 .4-1 1v2h28v-2c0-.6-.4-1-1-1h-2.1c-.5 0-2.3-.2-2.9-2-.4-1.2-.7-2.3-.9-3.1 0 0-4.4-.6-9-1.5-.3-.1-.3-.3-.2-.4h25.1c1.1 0 2-.9 2-2v-35c0-1.1-.9-2-2-2zm-3 32h-40v-27h40z"/><path d="m39 38.8c1.8 0 3.2-1.2 3.7-2.8h7.3v-2h-7.3c-.4-1.6-1.9-2.8-3.7-2.8s-3.2 1.2-3.7 2.8h-20.3v2h20.3c.5 1.6 1.9 2.8 3.7 2.8zm0-5.7c1.1 0 1.9.9 1.9 1.9 0 1.1-.9 1.9-1.9 1.9-1.1 0-1.9-.9-1.9-1.9 0-1.1.8-1.9 1.9-1.9z"/><path d="m21.5 31c3.6 0 6.5-2.9 6.5-6.5 0-1.3-.4-2.4-1-3.4l-6 3.4v-6.5c-3.3.3-6 3.1-6 6.5 0 3.6 2.9 6.5 6.5 6.5z"/><path d="m23 14.4v6.5l5.5-3.4c-1.1-1.9-3.1-3.1-5.5-3.1z"/><path d="m49 16h-16v13h16zm-1.9 1.9v6.8l-3.5-4.7-4.4 6-2.2-3-2.1 2.8v-7.8h12.2z"/><circle cx="38.5" cy="20.5" r="1.5"/></svg>

<?xml version="1.0" encoding="utf-8"?>
<!-- Generator: Adobe Illustrator 23.1.1, SVG Export Plug-In . SVG Version: 6.00 Build 0)  -->
<svg version="1.1" xmlns="http://www.w3.org/2000/svg" xmlns:xlink="http://www.w3.org/1999/xlink" x="0px" y="0px"
	 viewBox="0 0 64 64" style="enable-background:new 0 0 64 64;" xml:space="preserve">
<style type="text/css">
	.st0{fill:none;}
</style>
<g id="Box">
	<rect class="st0" width="64" height="64"/>
</g>
<g id="Icon">
	<g>
		<path d="M55,8H9c-1.1,0-2,0.9-2,2v35c0,1.1,0.9,2,2,2h16.5c0,0-0.5,1.9-1.5,5c-0.6,1.8-2.4,2-2.9,2H19c-0.6,0-1,0.4-1,1v2h28v-2
			c0-0.6-0.4-1-1-1h-2.1c-0.5,0-2.3-0.2-2.9-2c-0.4-1.2-0.7-2.3-0.9-3.1c0,0-4.4-0.6-9-1.5c-0.3-0.1-0.3-0.3-0.2-0.4H55
			c1.1,0,2-0.9,2-2V10C57,8.9,56.1,8,55,8z M52,40H12V13h40V40z"/>
		<path d="M39,38.8c1.8,0,3.2-1.2,3.7-2.8H50v-2h-7.3c-0.4-1.6-1.9-2.8-3.7-2.8s-3.2,1.2-3.7,2.8H15v2h20.3
			C35.8,37.6,37.2,38.8,39,38.8z M39,33.1c1.1,0,1.9,0.9,1.9,1.9c0,1.1-0.9,1.9-1.9,1.9c-1.1,0-1.9-0.9-1.9-1.9
			C37.1,33.9,37.9,33.1,39,33.1z"/>
		<path d="M21.5,31c3.6,0,6.5-2.9,6.5-6.5c0-1.3-0.4-2.4-1-3.4l-6,3.4v-6.5c-3.3,0.3-6,3.1-6,6.5C15,28.1,17.9,31,21.5,31z"/>
		<path d="M23,14.4v6.5l5.5-3.4C27.4,15.6,25.4,14.4,23,14.4z"/>
		<path d="M49,16H33v13h16V16z M47.1,17.9v6.8L43.6,20l-4.4,6h0L37,23l-2.1,2.8v-7.8H47.1z"/>
		<circle cx="38.5" cy="20.5" r="1.5"/>
	</g>
</g>
</svg>
